X:1
T:Nicht labt mich merh als Wein
T:W. A. Mozart
%%score [ 1 2 3 ]
L:1/8
Q:1/4=90
M:4/4
K:Ab
V:1 treble-8 nm="I"
V:2 treble-8 nm="II"
V:3 treble-8 nm="III"
V:1
|: A4 E2 C2 | B,4 E4 | C4 e4 | (=e2 f2) (d2 B2) | A6 G2 | A2 z2 z2 c2 | d4 B4 | e4 c4 | z2 d4 c B | %9
w: Nichts labt mich|mehr als|Wein. Er|schleicht _ so _|sacht hin-|ein, er|schleicht so|sacht, er|schleicht sacht hin-|
{B} c4 z4 :| %10
w: ein!|
V:2
|: z8 | d4 B2 G2 |{B} A4 A2 c2 | B2 A2 z2 (fd) | c B B2 B2 (B/c/) (d/e/) | c2 z2 A2 =A2 | %6
w: |Er netzt, wenn|al- les gleich|lech- zet, die _|troc- ken- en Keh- len _ al- *|lein; Läßt wenn|
 B4 (dB) (GD) | C4 e2 e2 | d2 B4 (AG) |{G} A4 z4 :| %10
w: Murr- kopf _ auch _|äch- zet, stets|fröh- lich mich _|sein.|
V:3
|: z8 | z8 | e4 c2 A2 | G2 F2 B2 d2 | z2 (D=D) E4 | A,2 C3/2 E/ A2 F2 | B,4 G4 | A4 (A,C) (EA) | %8
w: ||Drum schwingt mit|mir die Glä- ser!|Stoßt _ an!|Laßt al- le Sor- gen|sein! Stoßt|an! Wir _ er- *|
 F2 D2 E2 E2 |{E} A,4 z4 :| %10
w: säu- fen sie im|Wein!|

